source/assets/images/icons/sector-health.svg

<?xml version="1.0" encoding="utf-8"?>
<!-- Generated by IcoMoon.io -->
<!DOCTYPE svg PUBLIC "-//W3C//DTD SVG 1.1//EN" "http://www.w3.org/Graphics/SVG/1.1/DTD/svg11.dtd">
<svg version="1.1" xmlns="http://www.w3.org/2000/svg" xmlns:xlink="http://www.w3.org/1999/xlink" width="32" height="32" viewBox="0 0 32 32">
<path fill="#444444" d="M25.81 15.218c0-0.694-0.577-1.272-1.276-1.272h-6.374v-6.352c0-0.697-0.58-1.272-1.276-1.272h-2.549c-0.699 0-1.276 0.575-1.276 1.272v6.352h-6.377c-0.696 0-1.273 0.578-1.273 1.272v2.54c0 0.697 0.577 1.272 1.273 1.272h6.377v6.355c0 0.694 0.577 1.269 1.276 1.269h2.549c0.696 0 1.276-0.575 1.276-1.269v-6.355h6.374c0.699 0 1.276-0.575 1.276-1.272v-2.54zM30.911 26.023c0 3.154-2.57 5.715-5.741 5.715h-19.125c-3.168 0-5.738-2.561-5.738-5.715v-19.066c0-3.157 2.57-5.718 5.738-5.718h19.125c3.171 0 5.741 2.561 5.741 5.718v19.066z"></path>
</svg>

<svg xmlns="http://www.w3.org/2000/svg" width="32" height="32" viewBox="0 0 32 32"><path fill="#444" d="M25.81 15.218c0-.694-.577-1.272-1.276-1.272H18.16V7.594c0-.697-.58-1.272-1.276-1.272h-2.55c-.698 0-1.275.575-1.275 1.272v6.352H6.68c-.696 0-1.273.578-1.273 1.272v2.54c0 .697.576 1.272 1.272 1.272h6.376v6.355c0 .694.576 1.27 1.275 1.27h2.55c.696 0 1.276-.576 1.276-1.27V19.03h6.374c.7 0 1.276-.575 1.276-1.272v-2.54zm5.1 10.805c0 3.154-2.57 5.715-5.74 5.715H6.045c-3.168 0-5.738-2.56-5.738-5.715V6.957c0-3.157 2.57-5.718 5.738-5.718H25.17c3.17 0 5.74 2.56 5.74 5.716v19.066z"/></svg>
